Newaita-dark/apps/64/spotify-client.svg

<svg height="64pt" viewBox="0 0 64 64" width="64pt" xmlns="http://www.w3.org/2000/svg" xmlns:xlink="http://www.w3.org/1999/xlink"><linearGradient id="a"><stop offset="0" stop-opacity=".313725"/><stop offset=".222222" stop-opacity=".27451"/><stop offset="1" stop-opacity="0"/></linearGradient><radialGradient id="b" cx="450.90894" cy="189.57936" gradientTransform="matrix(.00000035 -.156265 -.281277 -.0000002 89.046304 127.190664)" gradientUnits="userSpaceOnUse" r="21.166656" xlink:href="#a"/><radialGradient id="c" cx="450.90894" cy="189.57936" gradientTransform="matrix(-.00000035 .156265 .281277 .0000002 -25.540241 -15.054962)" gradientUnits="userSpaceOnUse" r="21.166656" xlink:href="#a"/><radialGradient id="d" cx="450.90894" cy="189.57936" gradientTransform="matrix(-.00000035 -.156265 .281277 -.0000002 -25.540241 127.190664)" gradientUnits="userSpaceOnUse" r="21.166656" xlink:href="#a"/><radialGradient id="e" cx="450.90894" cy="189.57936" gradientTransform="matrix(.00000035 .156265 -.281277 .0000002 89.0463 -15.054964)" gradientUnits="userSpaceOnUse" r="21.166656" xlink:href="#a"/><linearGradient id="f" gradientTransform="matrix(.0267201 0 0 .125012 24.930772 26.877567)" gradientUnits="userSpaceOnUse" x1="255.32306" x2="255.32304" y1="233.5" y2="254.66666"><stop offset="0" stop-opacity=".27451"/><stop offset="1" stop-opacity="0"/></linearGradient><linearGradient id="g" gradientUnits="userSpaceOnUse" x1="254" x2="254" y1="-168.66667" y2="233.5"><stop offset="0" stop-color="#81c784"/><stop offset="1" stop-color="#66bb6a"/></linearGradient><linearGradient id="h" gradientTransform="matrix(.0325736 .0057436 -.0057436 .0325736 5.764428 -5.263189)" gradientUnits="userSpaceOnUse" x1="871.21808" x2="1102.7169" y1="185.77885" y2="1729.0249"><stop offset="0" stop-color="#e0e0e0"/><stop offset="1" stop-color="#eee"/></linearGradient><path d="m36.382812 56.066406h5.292969v-2.644531h-5.292969zm0 0" fill="url(#b)"/><path d="m27.121094 56.066406h-5.289063v2.648438h5.289063zm0 0" fill="url(#c)"/><path d="m27.121094 56.066406h-5.289063v-2.644531h5.289063zm0 0" fill="url(#d)"/><path d="m36.382812 56.066406h5.292969v2.648438h-5.292969zm0 0" fill="url(#e)"/><path d="m27.121094 55.40625h9.261718v3.308594h-9.261718zm0 0" fill="url(#f)"/><path d="m254.006994-168.660675c111.051895 0 201.074548 90.022653 201.074548 201.074548s-90.022653 201.074548-201.074548 201.074548c-111.051896 0-201.105796-90.022653-201.105796-201.074548s90.0539-201.074548 201.105796-201.074548zm0 0" fill="url(#g)" stroke="#333" stroke-linecap="round" stroke-width="3" transform="matrix(.125012 0 0 .125012 0 26.877566)"/><path d="m31.753906 56.066406c-13.925781 0-25.140625-11.210937-25.140625-25.136718 0-.082032.003907-.164063.003907-.246094.128906 13.8125 11.292968 24.890625 25.136718 24.890625s25.003906-11.078125 25.136719-24.890625v.246094c0 13.925781-11.210937 25.136718-25.136719 25.136718zm0 0" fill-opacity=".196078"/><path d="m31.753906 5.792969c-13.925781 0-25.140625 11.210937-25.140625 25.136719 0 .082031.003907.164062.003907.246093.128906-13.8125 11.292968-24.890625 25.136718-24.890625s25.003906 11.078125 25.136719 24.890625c0-.082031 0-.164062 0-.246093 0-13.925782-11.210937-25.136719-25.136719-25.136719zm0 0" fill="#fff" fill-opacity=".392157"/><path d="m31.753906 5.605469c-14.027344 0-25.328125 11.296875-25.328125 25.324219 0 14.027343 11.300781 25.324218 25.328125 25.324218s25.324219-11.296875 25.324219-25.324218c0-14.027344-11.296875-25.324219-25.324219-25.324219zm0 .375c13.824219 0 24.949219 11.125 24.949219 24.949219 0 13.824218-11.125 24.949218-24.949219 24.949218-13.828125 0-24.953125-11.125-24.953125-24.949218 0-13.824219 11.125-24.949219 24.953125-24.949219zm0 0" fill="#212121"/><path d="m33.957031 17.699219c-3.167969-.558594-6.304687-.648438-9.347656-.324219-9.695313 1.667969-8.234375 8.625-1.222656 6.933594 3.019531-.613282 6.203125-.679688 9.425781-.113282 3.222656.570313 6.191406 1.722657 8.816406 3.332032 6.015625 3.984375 9.765625-2.050782 1.222656-6.933594-2.742187-1.347656-5.726562-2.335938-8.894531-2.894531zm-1.832031 10.40625c-3.171875-.558594-6.308594-.648438-9.347656-.324219-6.863282.824219-6.097656 5.996094-.964844 5.472656 3.027344-.5 6.191406-.5 9.390625.0625 3.203125.566406 6.175781 1.648438 8.847656 3.152344 4.644531 2.25 7.132813-2.347656.96875-5.472656-2.746093-1.34375-5.726562-2.332032-8.894531-2.890625zm-1.609375 9.121093c-3.167969-.558593-6.308594-.652343-9.347656-.324218-4.085938.304687-3.144531 4.5-.722657 4.09375 3.03125-.449219 6.1875-.425782 9.378907.136718 3.195312.5625 6.167969 1.621094 8.863281 3.082032 2.136719 1.210937 4.457031-2.410156.722656-4.097656-2.746094-1.34375-5.726562-2.332032-8.894531-2.890626zm0 0" fill="url(#h)"/><path d="m28.070312 17.1875c-1.164062.003906-2.320312.066406-3.460937.1875-5.277344.910156-7.25 3.382812-6.820313 5.175781.363282-1.617187 2.464844-3.433593 6.820313-4.183593 3.042969-.324219 6.179687-.234376 9.347656.324218s6.152344 1.546875 8.894531 2.894532c3.21875 1.839843 4.695313 3.84375 4.957032 5.414062.3125-1.648438-1.007813-4.152344-4.957032-6.40625-2.742187-1.347656-5.726562-2.335938-8.894531-2.894531-1.980469-.347657-3.949219-.515625-5.886719-.511719zm-1.835937 10.40625c-1.164063 0-2.316406.066406-3.457031.1875-3.890625.46875-5.332032 2.332031-4.910156 3.765625.335937-1.195313 1.875-2.410156 4.910156-2.773437 3.039062-.324219 6.175781-.234376 9.347656.324218 3.167969.558594 6.148438 1.546875 8.894531 2.890625 2.257813 1.144531 3.355469 2.488281 3.609375 3.621094.320313-1.261719-.640625-3.109375-3.609375-4.613281-2.746093-1.34375-5.726562-2.332032-8.894531-2.890625-1.980469-.351563-3.949219-.515625-5.890625-.511719zm-1.609375 9.121094c-1.164062 0-2.316406.066406-3.457031.1875-2.339844.175781-3.03125 1.628906-2.738281 2.761718.222656-.855468 1.054687-1.644531 2.738281-1.769531 3.039062-.328125 6.179687-.234375 9.347656.324219s6.148437 1.546875 8.894531 2.890625c1.15625.523437 1.730469 1.230469 1.910156 1.921875.25-.9375-.183593-2.132812-1.910156-2.914062-2.746094-1.34375-5.726562-2.332032-8.894531-2.890626-1.980469-.351562-3.949219-.515624-5.890625-.511718zm0 0" fill="#fff"/><path d="m271.630311-73.41977c-25.34133-4.468324-50.432684-5.187005-74.77411-2.593503-77.555094 13.342476-65.86871 68.993412-9.780316 55.463454 24.153944-4.905782 49.620262-5.436981 75.39905-.906164 25.778788 4.562065 49.52652 13.779935 70.524515 26.653705 48.120405 31.871957 78.11754-16.404683 9.780316-55.463453-21.935405-10.780221-45.808125-18.685716-71.149455-23.154039zm-14.654851 83.242051c-25.372577-4.468324-50.463931-5.187005-74.774109-2.593503-54.901008 6.593121-48.776592 47.96417-7.718013 43.77707 24.216437-3.999618 49.52652-3.999618 75.117826.499952 25.622553 4.530817 49.401533 13.186241 70.774492 25.216342 37.152702 17.998281 57.057051-18.779457 7.74926-43.77707-21.966653-10.748973-45.808126-18.654468-71.149456-23.122791zm-12.873771 72.961782c-25.34133-4.468323-50.46393-5.218252-74.774109-2.593502-32.684379 2.437267-25.153848 35.996562-5.780698 32.746873 24.247685-3.593407 49.495273-3.405925 75.024086 1.093645 25.560059 4.49957 49.339038 12.967512 70.899479 24.653896 17.092118 9.686575 35.652845-19.279409 5.780698-32.77812-21.966652-10.748974-45.808126-18.654469-71.149456-23.122792zm0 0" fill="none" stroke="#212121" stroke-linecap="round" stroke-width="3" transform="matrix(.125012 0 0 .125012 0 26.877566)"/><path d="m17.910156 22.664062c-.84375 2.152344 1.359375 4.140626 5.476563 3.148438 3.019531-.613281 6.203125-.683594 9.425781-.113281 3.222656.566406 6.191406 1.71875 8.816406 3.328125 3.941406 2.613281 6.910156.921875 6.085938-1.929688-.597656 1.652344-3.054688 2.191406-6.085938.183594-2.625-1.609375-5.59375-2.761719-8.816406-3.332031-3.222656-.570313-6.40625-.5-9.425781.113281-2.933594.707031-4.894531-.097656-5.476563-1.398438zm.109375 9.003907c-.824219 1.628906.679688 3.40625 3.792969 3.089843 3.027344-.5 6.191406-.503906 9.390625.0625 3.203125.5625 6.175781 1.648438 8.851563 3.152344 3.140624 1.523438 5.296874-.09375 4.449218-2.265625-.550781 1.113281-2.261718 1.578125-4.449218.515625-2.675782-1.503906-5.648438-2.589844-8.851563-3.152344-3.199219-.566406-6.363281-.5625-9.390625-.0625-1.964844.199219-3.292969-.433593-3.792969-1.339843zm.550781 8.128906c-.644531 1.292969.304688 2.964844 1.875 2.703125 3.03125-.449219 6.1875-.425781 9.378907.136719 3.195312.5625 6.167969 1.621093 8.863281 3.078125 1.597656.90625 3.292969-.886719 2.492188-2.554688-.433594.871094-1.480469 1.378906-2.492188.804688-2.695312-1.457032-5.667969-2.515625-8.863281-3.078125-3.191407-.5625-6.347657-.585938-9.378907-.136719-.871093.148438-1.550781-.304688-1.875-.953125zm0 0" fill-opacity=".235294"/></svg>

<?xml version="1.0" encoding="UTF-8"?>
<svg xmlns="http://www.w3.org/2000/svg" xmlns:xlink="http://www.w3.org/1999/xlink" width="64pt" height="64pt" viewBox="0 0 64 64" version="1.1">
<defs>
<radialGradient id="radial0" gradientUnits="userSpaceOnUse" cx="450.90894" cy="189.57936" fx="450.90894" fy="189.57936" r="21.166656" gradientTransform="matrix(0.000000348341,-0.156265,-0.281277,-0.000000203077,89.046304,127.190664)">
<stop offset="0" style="stop-color:rgb(0%,0%,0%);stop-opacity:0.313725;"/>
<stop offset="0.222222" style="stop-color:rgb(0%,0%,0%);stop-opacity:0.27451;"/>
<stop offset="1" style="stop-color:rgb(0%,0%,0%);stop-opacity:0;"/>
</radialGradient>
<radialGradient id="radial1" gradientUnits="userSpaceOnUse" cx="450.90894" cy="189.57936" fx="450.90894" fy="189.57936" r="21.166656" gradientTransform="matrix(-0.000000348341,0.156265,0.281277,0.000000203077,-25.540241,-15.054962)">
<stop offset="0" style="stop-color:rgb(0%,0%,0%);stop-opacity:0.313725;"/>
<stop offset="0.222222" style="stop-color:rgb(0%,0%,0%);stop-opacity:0.27451;"/>
<stop offset="1" style="stop-color:rgb(0%,0%,0%);stop-opacity:0;"/>
</radialGradient>
<radialGradient id="radial2" gradientUnits="userSpaceOnUse" cx="450.90894" cy="189.57936" fx="450.90894" fy="189.57936" r="21.166656" gradientTransform="matrix(-0.000000348341,-0.156265,0.281277,-0.000000203077,-25.540241,127.190664)">
<stop offset="0" style="stop-color:rgb(0%,0%,0%);stop-opacity:0.313725;"/>
<stop offset="0.222222" style="stop-color:rgb(0%,0%,0%);stop-opacity:0.27451;"/>
<stop offset="1" style="stop-color:rgb(0%,0%,0%);stop-opacity:0;"/>
</radialGradient>
<radialGradient id="radial3" gradientUnits="userSpaceOnUse" cx="450.90894" cy="189.57936" fx="450.90894" fy="189.57936" r="21.166656" gradientTransform="matrix(0.000000348341,0.156265,-0.281277,0.000000203077,89.0463,-15.054964)">
<stop offset="0" style="stop-color:rgb(0%,0%,0%);stop-opacity:0.313725;"/>
<stop offset="0.222222" style="stop-color:rgb(0%,0%,0%);stop-opacity:0.27451;"/>
<stop offset="1" style="stop-color:rgb(0%,0%,0%);stop-opacity:0;"/>
</radialGradient>
<linearGradient id="linear0" gradientUnits="userSpaceOnUse" x1="255.32306" y1="233.5" x2="255.32304" y2="254.66666" gradientTransform="matrix(0.0267201,0,0,0.125012,24.930772,26.877567)">
<stop offset="0" style="stop-color:rgb(0%,0%,0%);stop-opacity:0.27451;"/>
<stop offset="1" style="stop-color:rgb(0%,0%,0%);stop-opacity:0;"/>
</linearGradient>
<linearGradient id="linear1" gradientUnits="userSpaceOnUse" x1="254" y1="-168.66667" x2="254" y2="233.5" >
<stop offset="0" style="stop-color:rgb(50.588235%,78.039216%,51.764706%);stop-opacity:1;"/>
<stop offset="1" style="stop-color:rgb(40%,73.333333%,41.568627%);stop-opacity:1;"/>
</linearGradient>
<linearGradient id="linear2" gradientUnits="userSpaceOnUse" x1="871.21808" y1="185.77885" x2="1102.7169" y2="1729.0249" gradientTransform="matrix(0.0325736,0.0057436,-0.0057436,0.0325736,5.764428,-5.263189)">
<stop offset="0" style="stop-color:rgb(87.843137%,87.843137%,87.843137%);stop-opacity:1;"/>
<stop offset="1" style="stop-color:rgb(93.333333%,93.333333%,93.333333%);stop-opacity:1;"/>
</linearGradient>
</defs>
<g id="surface1">
<path style=" stroke:none;fill-rule:nonzero;fill:url(#radial0);" d="M 36.382812 56.066406 L 41.675781 56.066406 L 41.675781 53.421875 L 36.382812 53.421875 Z M 36.382812 56.066406 "/>
<path style=" stroke:none;fill-rule:nonzero;fill:url(#radial1);" d="M 27.121094 56.066406 L 21.832031 56.066406 L 21.832031 58.714844 L 27.121094 58.714844 Z M 27.121094 56.066406 "/>
<path style=" stroke:none;fill-rule:nonzero;fill:url(#radial2);" d="M 27.121094 56.066406 L 21.832031 56.066406 L 21.832031 53.421875 L 27.121094 53.421875 Z M 27.121094 56.066406 "/>
<path style=" stroke:none;fill-rule:nonzero;fill:url(#radial3);" d="M 36.382812 56.066406 L 41.675781 56.066406 L 41.675781 58.714844 L 36.382812 58.714844 Z M 36.382812 56.066406 "/>
<path style=" stroke:none;fill-rule:nonzero;fill:url(#linear0);" d="M 27.121094 55.40625 L 36.382812 55.40625 L 36.382812 58.714844 L 27.121094 58.714844 Z M 27.121094 55.40625 "/>
<path style="fill-rule:nonzero;fill:url(#linear1);stroke-width:3;stroke-linecap:round;stroke-linejoin:miter;stroke:rgb(20%,20%,20%);stroke-opacity:1;stroke-miterlimit:4;" d="M 254.006994 -168.660675 C 365.058889 -168.660675 455.081542 -78.638022 455.081542 32.413873 C 455.081542 143.465768 365.058889 233.488421 254.006994 233.488421 C 142.955098 233.488421 52.901198 143.465768 52.901198 32.413873 C 52.901198 -78.638022 142.955098 -168.660675 254.006994 -168.660675 Z M 254.006994 -168.660675 " transform="matrix(0.125012,0,0,0.125012,0,26.877566)"/>
<path style=" stroke:none;fill-rule:nonzero;fill:rgb(0%,0%,0%);fill-opacity:0.196078;" d="M 31.753906 56.066406 C 17.828125 56.066406 6.613281 44.855469 6.613281 30.929688 C 6.613281 30.847656 6.617188 30.765625 6.617188 30.683594 C 6.746094 44.496094 17.910156 55.574219 31.753906 55.574219 C 45.597656 55.574219 56.757812 44.496094 56.890625 30.683594 C 56.890625 30.765625 56.890625 30.847656 56.890625 30.929688 C 56.890625 44.855469 45.679688 56.066406 31.753906 56.066406 Z M 31.753906 56.066406 "/>
<path style=" stroke:none;fill-rule:nonzero;fill:rgb(100%,100%,100%);fill-opacity:0.392157;" d="M 31.753906 5.792969 C 17.828125 5.792969 6.613281 17.003906 6.613281 30.929688 C 6.613281 31.011719 6.617188 31.09375 6.617188 31.175781 C 6.746094 17.363281 17.910156 6.285156 31.753906 6.285156 C 45.597656 6.285156 56.757812 17.363281 56.890625 31.175781 C 56.890625 31.09375 56.890625 31.011719 56.890625 30.929688 C 56.890625 17.003906 45.679688 5.792969 31.753906 5.792969 Z M 31.753906 5.792969 "/>
<path style=" stroke:none;fill-rule:nonzero;fill:rgb(12.941176%,12.941176%,12.941176%);fill-opacity:1;" d="M 31.753906 5.605469 C 17.726562 5.605469 6.425781 16.902344 6.425781 30.929688 C 6.425781 44.957031 17.726562 56.253906 31.753906 56.253906 C 45.78125 56.253906 57.078125 44.957031 57.078125 30.929688 C 57.078125 16.902344 45.78125 5.605469 31.753906 5.605469 Z M 31.753906 5.980469 C 45.578125 5.980469 56.703125 17.105469 56.703125 30.929688 C 56.703125 44.753906 45.578125 55.878906 31.753906 55.878906 C 17.925781 55.878906 6.800781 44.753906 6.800781 30.929688 C 6.800781 17.105469 17.925781 5.980469 31.753906 5.980469 Z M 31.753906 5.980469 "/>
<path style=" stroke:none;fill-rule:nonzero;fill:url(#linear2);" d="M 33.957031 17.699219 C 30.789062 17.140625 27.652344 17.050781 24.609375 17.375 C 14.914062 19.042969 16.375 26 23.386719 24.308594 C 26.40625 23.695312 29.589844 23.628906 32.8125 24.195312 C 36.035156 24.765625 39.003906 25.917969 41.628906 27.527344 C 47.644531 31.511719 51.394531 25.476562 42.851562 20.59375 C 40.109375 19.246094 37.125 18.257812 33.957031 17.699219 Z M 32.125 28.105469 C 28.953125 27.546875 25.816406 27.457031 22.777344 27.78125 C 15.914062 28.605469 16.679688 33.777344 21.8125 33.253906 C 24.839844 32.753906 28.003906 32.753906 31.203125 33.316406 C 34.40625 33.882812 37.378906 34.964844 40.050781 36.46875 C 44.695312 38.71875 47.183594 34.121094 41.019531 30.996094 C 38.273438 29.652344 35.292969 28.664062 32.125 28.105469 Z M 30.515625 37.226562 C 27.347656 36.667969 24.207031 36.574219 21.167969 36.902344 C 17.082031 37.207031 18.023438 41.402344 20.445312 40.996094 C 23.476562 40.546875 26.632812 40.570312 29.824219 41.132812 C 33.019531 41.695312 35.992188 42.753906 38.6875 44.214844 C 40.824219 45.425781 43.144531 41.804688 39.410156 40.117188 C 36.664062 38.773438 33.683594 37.785156 30.515625 37.226562 Z M 30.515625 37.226562 "/>
<path style=" stroke:none;fill-rule:nonzero;fill:rgb(100%,100%,100%);fill-opacity:1;" d="M 28.070312 17.1875 C 26.90625 17.191406 25.75 17.253906 24.609375 17.375 C 19.332031 18.285156 17.359375 20.757812 17.789062 22.550781 C 18.152344 20.933594 20.253906 19.117188 24.609375 18.367188 C 27.652344 18.042969 30.789062 18.132812 33.957031 18.691406 C 37.125 19.25 40.109375 20.238281 42.851562 21.585938 C 46.070312 23.425781 47.546875 25.429688 47.808594 27 C 48.121094 25.351562 46.800781 22.847656 42.851562 20.59375 C 40.109375 19.246094 37.125 18.257812 33.957031 17.699219 C 31.976562 17.351562 30.007812 17.183594 28.070312 17.1875 Z M 26.234375 27.59375 C 25.070312 27.59375 23.917969 27.660156 22.777344 27.78125 C 18.886719 28.25 17.445312 30.113281 17.867188 31.546875 C 18.203125 30.351562 19.742188 29.136719 22.777344 28.773438 C 25.816406 28.449219 28.953125 28.539062 32.125 29.097656 C 35.292969 29.65625 38.273438 30.644531 41.019531 31.988281 C 43.277344 33.132812 44.375 34.476562 44.628906 35.609375 C 44.949219 34.347656 43.988281 32.5 41.019531 30.996094 C 38.273438 29.652344 35.292969 28.664062 32.125 28.105469 C 30.144531 27.753906 28.175781 27.589844 26.234375 27.59375 Z M 24.625 36.714844 C 23.460938 36.714844 22.308594 36.78125 21.167969 36.902344 C 18.828125 37.078125 18.136719 38.53125 18.429688 39.664062 C 18.652344 38.808594 19.484375 38.019531 21.167969 37.894531 C 24.207031 37.566406 27.347656 37.660156 30.515625 38.21875 C 33.683594 38.777344 36.664062 39.765625 39.410156 41.109375 C 40.566406 41.632812 41.140625 42.339844 41.320312 43.03125 C 41.570312 42.09375 41.136719 40.898438 39.410156 40.117188 C 36.664062 38.773438 33.683594 37.785156 30.515625 37.226562 C 28.535156 36.875 26.566406 36.710938 24.625 36.714844 Z M 24.625 36.714844 "/>
<path style="fill:none;stroke-width:3;stroke-linecap:round;stroke-linejoin:miter;stroke:rgb(12.941176%,12.941176%,12.941176%);stroke-opacity:1;stroke-miterlimit:4;" d="M 271.630311 -73.41977 C 246.288981 -77.888094 221.197627 -78.606775 196.856201 -76.013273 C 119.301107 -62.670797 130.987491 -7.019861 187.075885 -20.549819 C 211.229829 -25.455601 236.696147 -25.9868 262.474935 -21.455983 C 288.253723 -16.893918 312.001455 -7.676048 332.99945 5.197722 C 381.119855 37.069679 411.11699 -11.206961 342.779766 -50.265731 C 320.844361 -61.045952 296.971641 -68.951447 271.630311 -73.41977 Z M 256.97546 9.822281 C 231.602883 5.353957 206.511529 4.635276 182.201351 7.228778 C 127.300343 13.821899 133.424759 55.192948 174.483338 51.005848 C 198.699775 47.00623 224.009858 47.00623 249.601164 51.5058 C 275.223717 56.036617 299.002697 64.692041 320.375656 76.722142 C 357.528358 94.720423 377.432707 57.942685 328.124916 32.945072 C 306.158263 22.196099 282.31679 14.290604 256.97546 9.822281 Z M 244.101689 82.784063 C 218.760359 78.31574 193.637759 77.565811 169.32758 80.190561 C 136.643201 82.627828 144.173732 116.187123 163.546882 112.937434 C 187.794567 109.344027 213.042155 109.531509 238.570968 114.031079 C 264.131027 118.530649 287.910006 126.998591 309.470447 138.684975 C 326.562565 148.37155 345.123292 119.405566 315.251145 105.906855 C 293.284493 95.157881 269.443019 87.252386 244.101689 82.784063 Z M 244.101689 82.784063 " transform="matrix(0.125012,0,0,0.125012,0,26.877566)"/>
<path style=" stroke:none;fill-rule:nonzero;fill:rgb(0%,0%,0%);fill-opacity:0.235294;" d="M 17.910156 22.664062 C 17.066406 24.816406 19.269531 26.804688 23.386719 25.8125 C 26.40625 25.199219 29.589844 25.128906 32.8125 25.699219 C 36.035156 26.265625 39.003906 27.417969 41.628906 29.027344 C 45.570312 31.640625 48.539062 29.949219 47.714844 27.097656 C 47.117188 28.75 44.660156 29.289062 41.628906 27.28125 C 39.003906 25.671875 36.035156 24.519531 32.8125 23.949219 C 29.589844 23.378906 26.40625 23.449219 23.386719 24.0625 C 20.453125 24.769531 18.492188 23.964844 17.910156 22.664062 Z M 18.019531 31.667969 C 17.195312 33.296875 18.699219 35.074219 21.8125 34.757812 C 24.839844 34.257812 28.003906 34.253906 31.203125 34.820312 C 34.40625 35.382812 37.378906 36.46875 40.054688 37.972656 C 43.195312 39.496094 45.351562 37.878906 44.503906 35.707031 C 43.953125 36.820312 42.242188 37.285156 40.054688 36.222656 C 37.378906 34.71875 34.40625 33.632812 31.203125 33.070312 C 28.003906 32.503906 24.839844 32.507812 21.8125 33.007812 C 19.847656 33.207031 18.519531 32.574219 18.019531 31.667969 Z M 18.570312 39.796875 C 17.925781 41.089844 18.875 42.761719 20.445312 42.5 C 23.476562 42.050781 26.632812 42.074219 29.824219 42.636719 C 33.019531 43.199219 35.992188 44.257812 38.6875 45.714844 C 40.285156 46.621094 41.980469 44.828125 41.179688 43.160156 C 40.746094 44.03125 39.699219 44.539062 38.6875 43.964844 C 35.992188 42.507812 33.019531 41.449219 29.824219 40.886719 C 26.632812 40.324219 23.476562 40.300781 20.445312 40.75 C 19.574219 40.898438 18.894531 40.445312 18.570312 39.796875 Z M 18.570312 39.796875 "/>
</g>
</svg>
